src/assets/filled/CardRemove1.svg

<?xml version="1.0" encoding="UTF-8"?>
<svg width="24" height="24" viewBox="0 0 24 24" xmlns="http://www.w3.org/2000/svg">
 <path d="m2 11.46v5c0 2.29 1.85 4.14 4.14 4.14h11.71c2.29 0 4.15-1.86 4.15-4.15v-4.99c0-0.67-0.54-1.21-1.21-1.21h-17.58c-0.67 0-1.21 0.54-1.21 1.21zm6 5.79h-2c-0.41 0-0.75-0.34-0.75-0.75s0.34-0.75 0.75-0.75h2c0.41 0 0.75 0.34 0.75 0.75s-0.34 0.75-0.75 0.75zm6.5 0h-4c-0.41 0-0.75-0.34-0.75-0.75s0.34-0.75 0.75-0.75h4c0.41 0 0.75 0.34 0.75 0.75s-0.34 0.75-0.75 0.75z"/>
 <path d="m13.5 4.61v2.93c0 0.67-0.54 1.21-1.21 1.21h-9.08c-0.68 0-1.21-0.56-1.21-1.23 0.01-1.13 0.46-2.16 1.21-2.91s1.79-1.21 2.93-1.21h6.15c0.67 0 1.21 0.54 1.21 1.21z"/>
 <path d="m19.97 2h-2.94c-1.27 0-2.03 0.76-2.03 2.03v2.94c0 1.27 0.76 2.03 2.03 2.03h2.94c1.27 0 2.03-0.76 2.03-2.03v-2.94c0-1.27-0.76-2.03-2.03-2.03zm0.37 4.49c0.11 0.13 0.17 0.27 0.17 0.44 0 0.14-0.06 0.3-0.17 0.41-0.23 0.23-0.62 0.23-0.85 0l-0.99-0.99-0.98 1c-0.23 0.23-0.62 0.23-0.86-0.01-0.23-0.23-0.23-0.62 0-0.85l1-0.98-0.99-0.99c-0.23-0.23-0.24-0.62-0.01-0.86s0.62-0.23 0.86 0.01l0.98 0.99 1-1c0.23-0.23 0.62-0.23 0.85 0 0.11 0.13 0.16 0.28 0.17 0.44 0 0.14-0.06 0.3-0.16 0.42l-1 1 0.98 0.97z"/>
</svg>

<svg width="24" height="24" viewBox="0 0 24 24"  xmlns="http://www.w3.org/2000/svg">
<path d="M2 11.46V16.46C2 18.75 3.85 20.6 6.14 20.6H17.85C20.14 20.6 22 18.74 22 16.45V11.46C22 10.79 21.46 10.25 20.79 10.25H3.21C2.54 10.25 2 10.79 2 11.46ZM8 17.25H6C5.59 17.25 5.25 16.91 5.25 16.5C5.25 16.09 5.59 15.75 6 15.75H8C8.41 15.75 8.75 16.09 8.75 16.5C8.75 16.91 8.41 17.25 8 17.25ZM14.5 17.25H10.5C10.09 17.25 9.75 16.91 9.75 16.5C9.75 16.09 10.09 15.75 10.5 15.75H14.5C14.91 15.75 15.25 16.09 15.25 16.5C15.25 16.91 14.91 17.25 14.5 17.25Z" />
<path d="M13.5 4.61002V7.54002C13.5 8.21002 12.96 8.75002 12.29 8.75002H3.21C2.53 8.75002 2 8.19002 2 7.52002C2.01 6.39002 2.46 5.36002 3.21 4.61002C3.96 3.86002 5 3.40002 6.14 3.40002H12.29C12.96 3.40002 13.5 3.94002 13.5 4.61002Z" />
<path d="M19.97 2H17.03C15.76 2 15 2.76 15 4.03V6.97C15 8.24 15.76 9 17.03 9H19.97C21.24 9 22 8.24 22 6.97V4.03C22 2.76 21.24 2 19.97 2ZM20.34 6.49C20.45 6.62 20.51 6.76 20.51 6.93C20.51 7.07 20.45 7.23 20.34 7.34C20.11 7.57 19.72 7.57 19.49 7.34L18.5 6.35L17.52 7.35C17.29 7.58 16.9 7.58 16.66 7.34C16.43 7.11 16.43 6.72 16.66 6.49L17.66 5.51L16.67 4.52C16.44 4.29 16.43 3.9 16.66 3.66C16.89 3.42 17.28 3.43 17.52 3.67L18.5 4.66L19.5 3.66C19.73 3.43 20.12 3.43 20.35 3.66C20.46 3.79 20.51 3.94 20.52 4.1C20.52 4.24 20.46 4.4 20.36 4.52L19.36 5.52L20.34 6.49Z" />
</svg>
